icons/plexis/48/dropbox.svg

<svg viewBox="0 0 48 48" xmlns="http://www.w3.org/2000/svg" xmlns:xlink="http://www.w3.org/1999/xlink">
  <linearGradient id="a" gradientTransform="matrix(0 -1 1 0 -.0000015 47.999998)" gradientUnits="userSpaceOnUse" x1="1" x2="47">
    <stop offset="0" stop-color="#186dae"/>
    <stop offset="1" stop-color="#1b77bf"/>
  </linearGradient>
  <path d="m47 24c0 22.703-.297 23-23 23-22.703 0-23-.297-23-23 0-22.703.297-23 23-23 22.703 0 23 .297 23 23z" fill="url(#a)"/>
  <path d="m20.19 13l-7.188 4.801 5 4.48-5 4.16 5 3.197v2.893l7.5 4.469 7.5-4.469v-.012-2.881l5-3.197-5-4.16 5-4.48-7.188-4.801-5.307 4.797-.006-.004-.006.004-5.307-4.797z" opacity=".1" transform=""/>
  <path d="m24.5 16.793l-7.5 4.477v10.262l7.5-4.508 7.5 4.508v-10.262m-7.5-4.477" fill="#e5f4ff"/>
  <path d="m32 31.52v-10.238l-7.5-4.48v10.238m7.5 4.48" fill="#cfebff"/>
  <path d="m17 21.281v10.25l7.5 4.469 7.5-4.469v-10.25l-7.5 4.469m-7.5-4.469" fill="#61abea"/>
  <path d="m32 21.281v10.238l-7.5 4.48v-10.238m7.5-4.48" fill="#68b2ec"/>
  <path d="m17 21.281l-5 4.16 7.5 4.797 5-4.477m-7.5-4.48" fill="#8cc5f4"/>
  <path d="m32 21.281l5 4.16-7.5 4.797-5-4.477m7.5-4.48" fill="#8cc5f4"/>
  <path d="m12 16.801l5 4.48 7.5-4.48-5.313-4.801m-7.188 4.801" fill="#8cc5f4"/>
  <path d="m37 16.801l-5 4.48-7.5-4.48 5.313-4.801m7.188 4.801" fill="#8cc5f4"/>
</svg>

<svg xmlns="http://www.w3.org/2000/svg" viewBox="0 0 48 48">
 <defs>
  <linearGradient id="linearGradient3764" x1="1" x2="47" gradientUnits="userSpaceOnUse" gradientTransform="matrix(0,-1,1,0,-1.5e-6,47.999998)">
   <stop style="stop-color:#186dae;stop-opacity:1"/>
   <stop offset="1" style="stop-color:#1b77bf;stop-opacity:1"/>
  </linearGradient>
 </defs>
 <g>
  
  
  
 </g>
 <g>
  <path d="m 47,24 C 47,46.703 46.703,47 24,47 1.297,47 1,46.703 1,24 1,1.297 1.297,1 24,1 46.703,1 47,1.297 47,24 z" style="fill:url(#linearGradient3764);fill-opacity:1"/>
 </g>
 <g>
  <g>
   <g transform="translate(1,1)">
    <g style="opacity:0.1">
     <!-- color: #1b77bf -->
     <g>
      <path d="m 20.19 13 l -7.188 4.801 l 5 4.48 l -5 4.16 l 5 3.197 l 0 2.893 l 7.5 4.469 l 7.5 -4.469 l 0 -0.012 l 0 -2.881 l 5 -3.197 l -5 -4.16 l 5 -4.48 l -7.188 -4.801 l -5.307 4.797 l -0.006 -0.004 l -0.006 0.004 l -5.307 -4.797 z" transform="translate(-1,-1)"/>
     </g>
    </g>
   </g>
  </g>
 </g>
 <g>
  <g>
   <!-- color: #1b77bf -->
   <g>
    <path d="M 24.5,16.793 17,21.27 17,31.532 24.5,27.024 32,31.532 32,21.27 m -7.5,-4.477" style="fill:#e5f4ff;fill-opacity:1;stroke:none;fill-rule:nonzero"/>
    <path d="m 32 31.52 0 -10.238 -7.5 -4.48 0 10.238 m 7.5 4.48" style="fill:#cfebff;fill-opacity:1;stroke:none;fill-rule:nonzero"/>
    <path d="M 17,21.281 17,31.531 24.5,36 32,31.531 32,21.281 24.5,25.75 M 17,21.281" style="fill:#61abea;fill-opacity:1;stroke:none;fill-rule:nonzero"/>
    <path d="m 32 21.281 0 10.238 -7.5 4.48 0 -10.238 m 7.5 -4.48" style="fill:#68b2ec;fill-opacity:1;stroke:none;fill-rule:nonzero"/>
    <path d="m 17,21.281 -5,4.16 7.5,4.797 5,-4.477 M 17,21.281" style="fill:#8cc5f4;fill-opacity:1;stroke:none;fill-rule:nonzero"/>
    <path d="m 32 21.281 5 4.16 -7.5 4.797 -5 -4.477 m 7.5 -4.48" style="fill:#8cc5f4;fill-opacity:1;stroke:none;fill-rule:nonzero"/>
    <path d="m 12,16.801 5,4.48 7.5,-4.48 L 19.187,12 m -7.188,4.801" style="fill:#8cc5f4;fill-opacity:1;stroke:none;fill-rule:nonzero"/>
    <path d="m 37,16.801 -5,4.48 -7.5,-4.48 L 29.813,12 m 7.188,4.801" style="fill:#8cc5f4;fill-opacity:1;stroke:none;fill-rule:nonzero"/>
   </g>
  </g>
 </g>
 <g>
  
 </g>
</svg>
